X: 10441
Q: "Slow with expression."
M: C
L: 1/16
K: Eb
E3GB3B, C3EE3d | {d}e3cB2B,2 D2F2F3G |\
E3GB3B, C2E2A2Hc2 | BG3 F4 E6 :|\
(B/c/d) |\
{d}e3f{e}d3e c=Bcd e2zg | agfe d(cde f2)(B/c/d) |
{d}e3f{e}d3e (cBc)(d/e/) (fe)(dc) | (cB)AG (BA)GF E2G2E2 B/c/d |\
{d}e3f{e}d3e c=Bcd e3f | a3gf3e d3ef2g2 |\
eg3Ac3 G3AHB3c | e3cBG3 E6 |]


